X:1
T:Title
%%score { 1 | 2 }
L:1/8
M:3/2
K:Eb
V:1 treble nm="Grand Piano"
V:2 bass 
V:1
 z4 z4[Q:1/4=116] [EG]4 | [DB]2 [FA]2 G4 E4 | A2 G2 [DF]4 [DF]4 | G2 B2 =A4 c4 |[M:4/4] [DB]8 | %5
[M:2/4] B4 |[M:6/4] c2 B2 [Ge]2- [Ge]2 [EB]4 | [B,FA]2 [B,EG]2 [B,DF]2- [B,DF]2 [B,EB]4 | %8
 [G,E]2 [CFA]2 [B,EG]2- [B,EG]2 [A,DF]4 |[M:4/4] [G,E]8 |] %10
V:2
 z4 z4 [E,B,]4 | [B,,B,]2 [D,B,]2 [E,B,E]4 [G,B,]4 | [F,B,D]2 [E,B,E]2 [B,,B,]4 [B,,B,]4 | %3
 [E,B,E]2 [E,G,E]2 [F,E]4 [F,=A,E]4 |[M:4/4] [B,,B,]8 |[M:2/4] [E,G,E]4 | %6
[M:6/4] [E,A,E]2 [E,G,E]2 [E,B,]2- [E,B,]2 [E,G,]4 | D,2 E,2 B,,2- B,,2 G,,4 | %8
 C,2 A,,2 B,,2- B,,2 B,,4 |[M:4/4] E,8 |] %10

